X: 4111
T: Blooming Meadows, The
R: jig
M: 6/8
K: Gmajor
|:D ~G2 G2 A|B2 d JcAG|FAF ~ D3|F2G AGF|
~ D3 G2 A|BAG ABc|ded cAF|~G3 G3:|
|:Jg2 d d^cd|Jg2 a bag|f2 d d^cd|f2g agf|
[1 g2 d d^cd|g2 a bag|fed cAF|~G3 GBd:|
[2 gfe (3gfe d|fed (3Bcde|fe.d .dAF|~G3 G3||
|:~B2 G c2 A|~B2 G cAG|FAF ~D3|F2G AGF|
B2G c2A|BAG ABc|ded cAF|1 ~G3 G3:|2 AGF G3||

